!!!OTL: Wiederbegegnung auf dem Kirchweg (172), S.379
!!!id: T0348
**kern
*clefG2
*k[]
*G:
{8b
=1
4b
8b
8b
=2
8b
8g
8g
8g
=3
4g
4e
=4
4e}
=5
{4e
=6
4a
4a
=7
8dd
8cc
8b
8cc
=8
4b
4g
=9
4g}
=10
{4d
=11
4g
4d
=12
4g
4a
=13
4b
4a
=14
4cc}
=15
{4dd
=16
4b
4a
=17
4b
4g
=18
4a
4b
=19
4g}
8r
==
*-
!!!minrhy: 8
!!!meters: 2/4 ]  ZZ[4
!!!cut: Wiederbegegnung auf dem Kirchweg (172), S.379
!!!reg: Luxemburg
!!!trd: Singendes Volk, Esch-Alzette, 1937 posth.
!!!rhy1: X  X_XX  XXXX  X_X_  X_
!!!rhy2: X_  X_X_  XXXX  X_X_  X_
!!!key: T0348  08  G 2/4 ]  ZZ[4
!!!mod: SECHSTONSKALA DUR ?]  AMBITUS[8
!!!kad: -6141
!!!akz: 331-6_2531_1134_3321_
!!!fot: 'a__b__c__d__
!!!for: 'a__b__c__cv_
!!!fok: '\__^a_/__Sd_
!! PHRAS[AUFTAKTIG]
!!!fkt: Tage-. W&auml;chter-, Fenstergang-, St&auml;ndchenlieder, Liebeslied
!!!bem1: Heffingen, hhh Nikolaus Ewen, 29.8.1934;
!!!bem2: Fels, fff Gödert, 6.4.1930
!! THILL, Mathias:
!! PR[24] 2K[3] 2G[10] 3K[11] 3G[3] 4A[6] 4Ü[0] 5A[3] 6K[0] 6G[0]
!! 7K[0] 7G[0] 8A[0] MEHR[0] SI[37] ABS[63] SR[13] SP[24]
!! ST[16] 2k[3] 2g[14] 3k[14] 3g[3] 4d[3] 4ü[0] 5d[2] 6k[0] 6g[0]
!! 7k[0] 7g[0] 8d[0] mehr[0] si[40] dm[-3] sr[17] sp[22]
!! 1F[76] 2F[4] 3F[0] 4F[0] LF[0] 2P[19] 3P[0] 4P[0] TRI[0] DF[3] AB[67]
!! TF[0] U3K[0] U3[0] U4[0] U4Ü[0] U5[2] U6K[0] U6[0] U7K[0] U7[0]
!! N1[9] N2K[0] N2[8] N3K[0] N3[25] N4[5] N4Ü[0] N5[25] N6K[0] N6[11]
!!!n7k: 0] N7[3] O1[13] O2K[0] O2[0] O3K[0] O3[0] HÖ[0
!!!RNB: symbol: &auml;      = a umlaut  (UTF-8: Å„)
